apps/wow-docs/public/color/color_etc.svg

<svg width="274" height="133" viewBox="0 0 274 133" fill="none" xmlns="http://www.w3.org/2000/svg">
<rect y="0.800049" width="132" height="100" rx="12" fill="#5566FB"/>
<path d="M34.7109 130.8V119.425H37.3438C37.7865 119.43 38.2031 119.477 38.5938 119.566C38.9896 119.649 39.3542 119.769 39.6875 119.925C40.151 120.139 40.5599 120.42 40.9141 120.769C41.2734 121.113 41.5599 121.511 41.7734 121.964C41.9661 122.35 42.112 122.771 42.2109 123.23C42.3151 123.688 42.3698 124.178 42.375 124.698V125.534C42.375 126.034 42.3255 126.508 42.2266 126.956C42.1328 127.404 41.9948 127.816 41.8125 128.191C41.625 128.581 41.388 128.935 41.1016 129.253C40.8151 129.571 40.4948 129.842 40.1406 130.066C39.7656 130.3 39.3411 130.48 38.8672 130.605C38.3984 130.73 37.8906 130.795 37.3438 130.8H34.7109ZM36.1797 120.613V129.62H37.3438C37.7604 129.615 38.138 129.563 38.4766 129.464C38.8203 129.365 39.125 129.225 39.3906 129.042C39.6719 128.855 39.9141 128.626 40.1172 128.355C40.3255 128.079 40.4896 127.771 40.6094 127.433C40.7135 127.157 40.7917 126.86 40.8438 126.542C40.8958 126.219 40.9245 125.883 40.9297 125.534V124.683C40.9245 124.329 40.8932 123.99 40.8359 123.667C40.7839 123.339 40.7031 123.034 40.5938 122.753C40.4531 122.389 40.263 122.06 40.0234 121.769C39.7891 121.472 39.5 121.232 39.1562 121.05C38.9115 120.915 38.638 120.81 38.3359 120.738C38.0339 120.659 37.7031 120.618 37.3438 120.613H36.1797ZM44.2153 122.347H48.5356V129.55H51.2934V130.8H44.2153V129.55H47.0903V123.605H44.2153V122.347ZM46.9028 120.128C46.9028 120.003 46.921 119.886 46.9575 119.777C46.9992 119.667 47.0617 119.573 47.145 119.495C47.2127 119.428 47.2986 119.376 47.4028 119.339C47.5122 119.297 47.6346 119.277 47.77 119.277C47.9054 119.277 48.0252 119.297 48.1294 119.339C48.2335 119.376 48.3195 119.428 48.3872 119.495C48.4705 119.568 48.533 119.659 48.5747 119.769C48.6164 119.878 48.6372 119.998 48.6372 120.128C48.6372 120.363 48.5643 120.558 48.4184 120.714C48.2726 120.87 48.0565 120.948 47.77 120.948C47.4783 120.948 47.2596 120.87 47.1138 120.714C46.9731 120.558 46.9028 120.363 46.9028 120.128ZM58.7353 128.558C58.7353 128.386 58.7015 128.232 58.6338 128.097C58.566 127.956 58.4515 127.829 58.29 127.714C58.1285 127.6 57.915 127.495 57.6494 127.402C57.3838 127.303 57.053 127.214 56.6572 127.136C56.1728 127.037 55.7301 126.917 55.3291 126.777C54.9332 126.636 54.5947 126.467 54.3134 126.269C54.027 126.076 53.8056 125.85 53.6494 125.589C53.4931 125.323 53.415 125.016 53.415 124.667C53.415 124.323 53.4957 124.003 53.6572 123.706C53.8186 123.404 54.0452 123.141 54.3369 122.917C54.6285 122.693 54.9749 122.516 55.3759 122.386C55.7822 122.256 56.2275 122.191 56.7119 122.191C57.2327 122.191 57.7015 122.258 58.1181 122.394C58.5348 122.529 58.889 122.717 59.1806 122.956C59.4723 123.196 59.6963 123.477 59.8525 123.8C60.014 124.118 60.0947 124.462 60.0947 124.831H58.6494C58.6494 124.649 58.6025 124.472 58.5088 124.3C58.415 124.123 58.2848 123.967 58.1181 123.831C57.9515 123.696 57.7483 123.587 57.5088 123.503C57.2744 123.42 57.0088 123.378 56.7119 123.378C56.4046 123.378 56.1338 123.412 55.8994 123.48C55.6702 123.547 55.4801 123.639 55.3291 123.753C55.1728 123.868 55.0556 124.001 54.9775 124.152C54.8994 124.303 54.8603 124.459 54.8603 124.62C54.8603 124.787 54.8916 124.935 54.9541 125.066C55.0166 125.196 55.1259 125.313 55.2822 125.417C55.4332 125.521 55.6364 125.615 55.8916 125.698C56.152 125.782 56.4801 125.863 56.8759 125.941C57.3968 126.05 57.8629 126.178 58.2744 126.323C58.6858 126.464 59.0322 126.633 59.3134 126.831C59.5947 127.034 59.8082 127.269 59.9541 127.534C60.1051 127.8 60.1806 128.107 60.1806 128.456C60.1806 128.831 60.0947 129.172 59.9228 129.48C59.7561 129.787 59.5218 130.05 59.2197 130.269C58.9176 130.488 58.5556 130.657 58.1338 130.777C57.7119 130.896 57.2509 130.956 56.7509 130.956C56.178 130.956 55.6676 130.881 55.2197 130.73C54.7718 130.573 54.3942 130.368 54.0869 130.113C53.7744 129.863 53.5348 129.571 53.3681 129.238C53.2067 128.904 53.1259 128.558 53.1259 128.198H54.5713C54.5921 128.495 54.6702 128.745 54.8056 128.948C54.9463 129.152 55.1207 129.316 55.3291 129.441C55.5322 129.566 55.7588 129.654 56.0088 129.706C56.2588 129.758 56.5061 129.784 56.7509 129.784C57.1364 129.784 57.4723 129.74 57.7588 129.652C58.0452 129.558 58.2692 129.43 58.4306 129.269C58.5296 129.17 58.6051 129.06 58.6572 128.941C58.7093 128.821 58.7353 128.693 58.7353 128.558ZM65.8491 129.784C66.1095 129.784 66.3621 129.743 66.6069 129.659C66.8569 129.576 67.0782 129.459 67.2709 129.308C67.4636 129.162 67.6173 128.99 67.7319 128.792C67.8517 128.589 67.9142 128.37 67.9194 128.136H69.2866C69.2814 128.511 69.1824 128.87 68.9897 129.214C68.8022 129.553 68.5496 129.85 68.2319 130.105C67.9142 130.365 67.5496 130.573 67.1381 130.73C66.7267 130.881 66.297 130.956 65.8491 130.956C65.2084 130.956 64.6485 130.842 64.1694 130.613C63.6902 130.383 63.2918 130.073 62.9741 129.683C62.6511 129.297 62.409 128.852 62.2475 128.347C62.086 127.837 62.0053 127.3 62.0053 126.738V126.409C62.0053 125.852 62.086 125.318 62.2475 124.808C62.409 124.297 62.6511 123.847 62.9741 123.456C63.2918 123.071 63.6902 122.764 64.1694 122.534C64.6485 122.305 65.2084 122.191 65.8491 122.191C66.3491 122.191 66.8074 122.271 67.2241 122.433C67.6459 122.589 68.0105 122.803 68.3178 123.073C68.6199 123.35 68.8569 123.675 69.0287 124.05C69.2006 124.425 69.2866 124.826 69.2866 125.253H67.9194C67.9142 124.998 67.8569 124.758 67.7475 124.534C67.6433 124.305 67.5001 124.105 67.3178 123.933C67.1355 123.761 66.9168 123.626 66.6616 123.527C66.4116 123.428 66.1407 123.378 65.8491 123.378C65.4011 123.378 65.0235 123.469 64.7162 123.652C64.4142 123.829 64.1694 124.06 63.9819 124.347C63.7944 124.639 63.659 124.964 63.5756 125.323C63.4975 125.683 63.4584 126.045 63.4584 126.409V126.738C63.4584 127.107 63.4975 127.475 63.5756 127.839C63.659 128.198 63.7944 128.521 63.9819 128.808C64.1642 129.1 64.4064 129.337 64.7084 129.519C65.0157 129.696 65.3959 129.784 65.8491 129.784ZM70.9706 126.495C70.9706 125.886 71.0592 125.321 71.2363 124.8C71.4133 124.274 71.6685 123.818 72.0019 123.433C72.33 123.047 72.731 122.745 73.205 122.527C73.679 122.303 74.2128 122.191 74.8066 122.191C75.4055 122.191 75.942 122.303 76.4159 122.527C76.8951 122.745 77.3014 123.047 77.6347 123.433C77.9628 123.818 78.2154 124.274 78.3925 124.8C78.5696 125.321 78.6581 125.886 78.6581 126.495V126.667C78.6581 127.277 78.5696 127.842 78.3925 128.363C78.2154 128.883 77.9628 129.337 77.6347 129.722C77.3014 130.107 76.8977 130.409 76.4238 130.628C75.9498 130.847 75.4159 130.956 74.8222 130.956C74.2232 130.956 73.6842 130.847 73.205 130.628C72.731 130.409 72.33 130.107 72.0019 129.722C71.6685 129.337 71.4133 128.883 71.2363 128.363C71.0592 127.842 70.9706 127.277 70.9706 126.667V126.495ZM72.4159 126.667C72.4159 127.084 72.4654 127.482 72.5644 127.863C72.6633 128.238 72.8144 128.568 73.0175 128.855C73.2154 129.141 73.4654 129.368 73.7675 129.534C74.0696 129.701 74.4211 129.784 74.8222 129.784C75.218 129.784 75.5644 129.701 75.8613 129.534C76.1633 129.368 76.4159 129.141 76.6191 128.855C76.817 128.568 76.9654 128.238 77.0644 127.863C77.1633 127.482 77.2128 127.084 77.2128 126.667V126.495C77.2128 126.084 77.1607 125.691 77.0566 125.316C76.9576 124.935 76.8092 124.602 76.6113 124.316C76.4081 124.029 76.1555 123.803 75.8534 123.636C75.5566 123.464 75.2076 123.378 74.8066 123.378C74.4055 123.378 74.0566 123.464 73.7597 123.636C73.4628 123.803 73.2154 124.029 73.0175 124.316C72.8144 124.602 72.6633 124.935 72.5644 125.316C72.4654 125.691 72.4159 126.084 72.4159 126.495V126.667ZM86.0453 122.191C86.3109 122.191 86.587 122.209 86.8734 122.245C87.1651 122.282 87.3839 122.331 87.5297 122.394L87.3344 123.808C87.0531 123.745 86.7849 123.701 86.5297 123.675C86.2797 123.644 86.0167 123.628 85.7406 123.628C85.3865 123.628 85.0661 123.672 84.7797 123.761C84.4932 123.844 84.2432 123.969 84.0297 124.136C83.837 124.282 83.6677 124.462 83.5219 124.675C83.3812 124.883 83.2641 125.118 83.1703 125.378V130.8H81.7172V122.347H83.0922L83.1547 123.48L83.1625 123.691C83.5062 123.227 83.9177 122.863 84.3969 122.597C84.8812 122.326 85.4307 122.191 86.0453 122.191ZM89.3622 126.503C89.3622 125.873 89.4403 125.295 89.5966 124.769C89.758 124.238 89.9872 123.782 90.2841 123.402C90.5757 123.021 90.9299 122.725 91.3466 122.511C91.7632 122.297 92.2294 122.191 92.745 122.191C93.2502 122.191 93.6903 122.277 94.0653 122.448C94.4455 122.615 94.7736 122.86 95.0497 123.183V118.8H96.495V130.8H95.1669L95.1044 129.909C94.8231 130.253 94.4872 130.514 94.0966 130.691C93.7059 130.868 93.2502 130.956 92.7294 130.956C92.219 130.956 91.7554 130.847 91.3387 130.628C90.9273 130.409 90.5757 130.107 90.2841 129.722C89.9924 129.337 89.7658 128.883 89.6044 128.363C89.4429 127.837 89.3622 127.271 89.3622 126.667V126.503ZM90.8075 126.667C90.8075 127.079 90.8518 127.469 90.9403 127.839C91.0289 128.209 91.1669 128.534 91.3544 128.816C91.5367 129.097 91.771 129.321 92.0575 129.488C92.344 129.649 92.6877 129.73 93.0887 129.73C93.5731 129.73 93.9742 129.62 94.2919 129.402C94.6096 129.183 94.8622 128.889 95.0497 128.519V124.597C94.8622 124.253 94.6096 123.972 94.2919 123.753C93.9742 123.529 93.5783 123.417 93.1044 123.417C92.6981 123.417 92.3492 123.501 92.0575 123.667C91.771 123.834 91.5367 124.058 91.3544 124.339C91.1669 124.626 91.0289 124.956 90.9403 125.331C90.8518 125.701 90.8075 126.092 90.8075 126.503V126.667Z" fill="#6B6B6B"/>
<rect x="142" y="0.800049" width="132" height="100" rx="12" fill="black"/>
<path d="M188.719 129.308C188.542 129.516 188.354 129.706 188.156 129.878C187.958 130.045 187.753 130.191 187.539 130.316C187.174 130.534 186.781 130.696 186.359 130.8C185.938 130.909 185.495 130.962 185.031 130.956C184.562 130.951 184.13 130.881 183.734 130.745C183.344 130.605 182.992 130.412 182.68 130.167C182.367 129.928 182.094 129.644 181.859 129.316C181.625 128.988 181.43 128.631 181.273 128.245C181.112 127.865 180.99 127.467 180.906 127.05C180.828 126.628 180.786 126.204 180.781 125.777V124.456C180.786 124.034 180.823 123.615 180.891 123.198C180.964 122.777 181.073 122.373 181.219 121.988C181.365 121.602 181.547 121.245 181.766 120.917C181.984 120.584 182.247 120.295 182.555 120.05C182.857 119.81 183.201 119.62 183.586 119.48C183.971 119.339 184.404 119.269 184.883 119.269C185.414 119.269 185.904 119.352 186.352 119.519C186.799 119.68 187.19 119.912 187.523 120.214C187.857 120.521 188.125 120.891 188.328 121.323C188.531 121.751 188.656 122.23 188.703 122.761H187.273C187.216 122.433 187.128 122.131 187.008 121.855C186.888 121.573 186.732 121.334 186.539 121.136C186.341 120.938 186.107 120.784 185.836 120.675C185.565 120.56 185.25 120.503 184.891 120.503C184.547 120.503 184.242 120.563 183.977 120.683C183.711 120.797 183.479 120.954 183.281 121.152C183.083 121.35 182.919 121.581 182.789 121.847C182.659 122.107 182.552 122.383 182.469 122.675C182.385 122.967 182.326 123.264 182.289 123.566C182.253 123.868 182.234 124.159 182.234 124.441V125.777C182.24 126.063 182.263 126.36 182.305 126.667C182.352 126.969 182.422 127.266 182.516 127.558C182.609 127.85 182.729 128.126 182.875 128.386C183.021 128.646 183.198 128.876 183.406 129.073C183.609 129.271 183.846 129.43 184.117 129.55C184.388 129.665 184.695 129.725 185.039 129.73C185.237 129.735 185.443 129.727 185.656 129.706C185.875 129.685 186.086 129.644 186.289 129.581C186.492 129.519 186.682 129.435 186.859 129.331C187.036 129.222 187.185 129.081 187.305 128.909L187.32 126.355H185.008V125.136H188.695L188.719 129.308ZM190.715 122.347H195.036V129.55H197.793V130.8H190.715V129.55H193.59V123.605H190.715V122.347ZM193.403 120.128C193.403 120.003 193.421 119.886 193.458 119.777C193.499 119.667 193.562 119.573 193.645 119.495C193.713 119.428 193.799 119.376 193.903 119.339C194.012 119.297 194.135 119.277 194.27 119.277C194.405 119.277 194.525 119.297 194.629 119.339C194.734 119.376 194.819 119.428 194.887 119.495C194.971 119.568 195.033 119.659 195.075 119.769C195.116 119.878 195.137 119.998 195.137 120.128C195.137 120.363 195.064 120.558 194.918 120.714C194.773 120.87 194.556 120.948 194.27 120.948C193.978 120.948 193.76 120.87 193.614 120.714C193.473 120.558 193.403 120.363 193.403 120.128ZM203.04 120.3V122.347H206.259V123.464H203.04V128.058C203.04 128.386 203.082 128.657 203.165 128.87C203.248 129.084 203.363 129.253 203.509 129.378C203.655 129.508 203.821 129.6 204.009 129.652C204.201 129.704 204.405 129.73 204.618 129.73C204.774 129.73 204.936 129.722 205.103 129.706C205.269 129.685 205.433 129.662 205.595 129.636C205.751 129.61 205.897 129.584 206.032 129.558C206.173 129.527 206.287 129.501 206.376 129.48L206.579 130.503C206.459 130.576 206.313 130.641 206.142 130.698C205.97 130.751 205.782 130.795 205.579 130.831C205.376 130.873 205.16 130.904 204.931 130.925C204.707 130.946 204.483 130.956 204.259 130.956C203.884 130.956 203.532 130.904 203.204 130.8C202.881 130.691 202.6 130.519 202.36 130.284C202.121 130.055 201.931 129.758 201.79 129.394C201.655 129.024 201.587 128.579 201.587 128.058V123.464H199.368V122.347H201.587V120.3H203.04ZM210.193 123.605C210.307 123.433 210.435 123.277 210.576 123.136C210.716 122.99 210.865 122.863 211.021 122.753C211.271 122.571 211.544 122.433 211.841 122.339C212.143 122.245 212.464 122.196 212.802 122.191C213.245 122.191 213.646 122.256 214.005 122.386C214.37 122.511 214.68 122.709 214.935 122.98C215.19 123.251 215.386 123.594 215.521 124.011C215.662 124.422 215.732 124.912 215.732 125.48V130.8H214.287V125.464C214.287 125.131 214.247 124.839 214.169 124.589C214.091 124.334 213.977 124.123 213.826 123.956C213.664 123.774 213.461 123.639 213.216 123.55C212.971 123.456 212.69 123.412 212.372 123.417C212.112 123.417 211.865 123.454 211.63 123.527C211.396 123.6 211.18 123.704 210.982 123.839C210.826 123.943 210.68 124.066 210.544 124.206C210.414 124.342 210.297 124.493 210.193 124.659V130.8H208.747V118.8H210.193V123.605ZM223.447 130.8L223.361 129.636C223.08 130.053 222.728 130.378 222.307 130.613C221.885 130.842 221.398 130.956 220.846 130.956C220.403 130.956 220.002 130.889 219.643 130.753C219.283 130.613 218.976 130.396 218.721 130.105C218.465 129.813 218.268 129.443 218.127 128.995C217.991 128.542 217.924 128.001 217.924 127.37V122.347H219.369V127.386C219.369 127.844 219.406 128.225 219.478 128.527C219.551 128.829 219.661 129.068 219.807 129.245C219.952 129.428 220.129 129.555 220.338 129.628C220.551 129.701 220.796 129.738 221.072 129.738C221.395 129.738 221.684 129.701 221.939 129.628C222.195 129.55 222.416 129.443 222.603 129.308C222.76 129.198 222.895 129.068 223.01 128.917C223.129 128.761 223.228 128.592 223.307 128.409V122.347H224.76V130.8H223.447ZM234.17 126.667C234.17 127.037 234.142 127.394 234.084 127.738C234.032 128.076 233.954 128.394 233.85 128.691C233.709 129.081 233.524 129.433 233.295 129.745C233.071 130.053 232.801 130.308 232.483 130.511C232.254 130.652 232.001 130.761 231.725 130.839C231.454 130.917 231.16 130.956 230.842 130.956C230.478 130.956 230.144 130.912 229.842 130.823C229.545 130.735 229.277 130.607 229.037 130.441C228.923 130.357 228.814 130.266 228.709 130.167C228.605 130.068 228.506 129.959 228.412 129.839L228.342 130.8H227.014V118.8H228.459V123.253C228.579 123.102 228.712 122.967 228.858 122.847C229.004 122.722 229.16 122.615 229.327 122.527C229.535 122.417 229.764 122.334 230.014 122.277C230.264 122.219 230.535 122.191 230.827 122.191C231.191 122.191 231.527 122.24 231.834 122.339C232.142 122.438 232.42 122.576 232.67 122.753C232.894 122.92 233.095 123.123 233.272 123.363C233.449 123.597 233.605 123.86 233.741 124.152C233.881 124.48 233.988 124.844 234.061 125.245C234.134 125.641 234.17 126.06 234.17 126.503V126.667ZM232.725 126.503C232.725 126.238 232.707 125.98 232.67 125.73C232.639 125.475 232.59 125.235 232.522 125.011C232.428 124.735 232.306 124.482 232.155 124.253C232.004 124.024 231.819 123.844 231.6 123.714C231.449 123.62 231.28 123.547 231.092 123.495C230.905 123.443 230.696 123.417 230.467 123.417C230.217 123.417 229.988 123.451 229.78 123.519C229.571 123.581 229.386 123.67 229.225 123.784C229.058 123.904 228.91 124.045 228.78 124.206C228.655 124.363 228.548 124.534 228.459 124.722V128.417C228.553 128.605 228.662 128.779 228.787 128.941C228.918 129.097 229.066 129.235 229.233 129.355C229.399 129.475 229.587 129.568 229.795 129.636C230.004 129.698 230.233 129.73 230.483 129.73C230.722 129.73 230.941 129.701 231.139 129.644C231.337 129.581 231.514 129.493 231.67 129.378C231.879 129.232 232.053 129.047 232.194 128.823C232.334 128.6 232.446 128.35 232.53 128.073C232.597 127.865 232.647 127.641 232.678 127.402C232.709 127.162 232.725 126.917 232.725 126.667V126.503Z" fill="#6B6B6B"/>
</svg>

<svg xmlns="http://www.w3.org/2000/svg" width="274" height="133" fill="none"><rect width="132" height="100" y=".8" fill="#5566FB" rx="12"/><path fill="#6B6B6B" d="M34.71 130.8v-11.375h2.634q.664.008 1.25.141.594.125 1.093.359a4.3 4.3 0 0 1 1.227.844q.54.516.86 1.195.288.578.437 1.266.156.687.164 1.468v.836q0 .75-.148 1.422-.141.672-.414 1.235-.282.585-.711 1.062a4.6 4.6 0 0 1-.961.813 4.6 4.6 0 0 1-1.274.539q-.703.188-1.523.195zm1.47-10.187v9.007h1.164a4.2 4.2 0 0 0 1.133-.156 3.1 3.1 0 0 0 1.64-1.109q.314-.415.492-.922a4.7 4.7 0 0 0 .235-.891q.078-.484.086-1.008v-.851a6.4 6.4 0 0 0-.094-1.016 4.4 4.4 0 0 0-.242-.914 3.6 3.6 0 0 0-.57-.984 2.7 2.7 0 0 0-.868-.719 3.3 3.3 0 0 0-.82-.312 4.2 4.2 0 0 0-.992-.125zm8.035 1.734h4.32v7.203h2.758v1.25h-7.078v-1.25h2.875v-5.945h-2.875zm2.688-2.219q0-.187.055-.351a.74.74 0 0 1 .445-.438q.165-.062.367-.062.203 0 .36.062.155.056.257.156a.7.7 0 0 1 .188.274 1 1 0 0 1 .062.359q0 .352-.219.586-.217.234-.648.234-.437 0-.656-.234a.84.84 0 0 1-.211-.586m11.832 8.43q0-.258-.101-.461a1 1 0 0 0-.344-.383 2.6 2.6 0 0 0-.64-.312 6.5 6.5 0 0 0-.993-.266 10 10 0 0 1-1.328-.359 4.2 4.2 0 0 1-1.016-.508 2.2 2.2 0 0 1-.664-.68 1.8 1.8 0 0 1-.234-.922q0-.516.242-.961.243-.453.68-.789a3.4 3.4 0 0 1 1.039-.531q.61-.195 1.336-.195.781 0 1.406.203t1.063.562q.436.36.672.844.242.477.242 1.031h-1.446q0-.273-.14-.531a1.5 1.5 0 0 0-.39-.469 2 2 0 0 0-.61-.328 2.4 2.4 0 0 0-.797-.125q-.46 0-.813.102-.343.101-.57.273a1.16 1.16 0 0 0-.352.399 1 1 0 0 0-.117.468q0 .25.094.446.094.195.328.351.226.156.61.281.39.126.984.243.78.164 1.398.382.618.211 1.04.508.42.305.64.703.227.399.227.922 0 .562-.258 1.024-.25.46-.703.789a3.4 3.4 0 0 1-1.086.508 5 5 0 0 1-1.383.179 4.8 4.8 0 0 1-1.531-.226 3.6 3.6 0 0 1-1.133-.617 2.6 2.6 0 0 1-.719-.875 2.36 2.36 0 0 1-.242-1.04h1.445q.032.446.235.75.21.306.523.493.305.187.68.265t.742.078q.577 0 1.008-.132.429-.141.672-.383a1.1 1.1 0 0 0 .226-.328 1 1 0 0 0 .078-.383m7.114 1.226q.39 0 .758-.125.375-.125.664-.351.29-.219.46-.516a1.33 1.33 0 0 0 .188-.656h1.368a2.24 2.24 0 0 1-.297 1.078q-.281.508-.758.891-.477.39-1.094.625a3.7 3.7 0 0 1-1.289.226q-.96 0-1.68-.343-.718-.345-1.195-.93a3.9 3.9 0 0 1-.726-1.336 5.3 5.3 0 0 1-.243-1.609v-.329q0-.836.242-1.601.243-.766.727-1.352a3.5 3.5 0 0 1 1.195-.922q.72-.343 1.68-.343.75 0 1.375.242.632.235 1.094.64.453.415.71.977.26.562.259 1.203h-1.368a1.7 1.7 0 0 0-.171-.719 1.9 1.9 0 0 0-.43-.601 2 2 0 0 0-.656-.406 2.2 2.2 0 0 0-.813-.149q-.672 0-1.133.274a2.2 2.2 0 0 0-.734.695 3.1 3.1 0 0 0-.406.976q-.118.54-.118 1.086v.329q0 .554.118 1.101.124.538.406.969.273.438.726.711.462.265 1.141.265m5.122-3.289q0-.914.265-1.695.265-.79.766-1.367.492-.579 1.203-.906a3.7 3.7 0 0 1 1.602-.336q.898 0 1.609.336.719.327 1.219.906.492.578.757 1.367.267.781.266 1.695v.172q0 .915-.266 1.696t-.757 1.359a3.55 3.55 0 0 1-1.211.906 3.8 3.8 0 0 1-1.602.328 3.85 3.85 0 0 1-1.617-.328 3.5 3.5 0 0 1-1.203-.906 4 4 0 0 1-.766-1.359 5.2 5.2 0 0 1-.265-1.696zm1.445.172q0 .625.148 1.196.149.562.454.992.296.43.75.679.453.25 1.054.25.594 0 1.04-.25.452-.25.757-.679.297-.43.445-.992.15-.571.149-1.196v-.172q0-.617-.156-1.179a3.1 3.1 0 0 0-.446-1 2.25 2.25 0 0 0-.758-.68 2.05 2.05 0 0 0-1.046-.258q-.601 0-1.047.258a2.2 2.2 0 0 0-.743.68 3 3 0 0 0-.453 1 4.6 4.6 0 0 0-.148 1.179zm13.63-4.476q.398 0 .827.054.437.055.657.149l-.196 1.414a7 7 0 0 0-.804-.133 6 6 0 0 0-.79-.047q-.53 0-.96.133a2.2 2.2 0 0 0-.75.375 2.3 2.3 0 0 0-.508.539q-.21.313-.352.703v5.422h-1.453v-8.453h1.375l.063 1.133.007.211a3.85 3.85 0 0 1 1.235-1.094q.727-.406 1.648-.406m3.316 4.312q0-.945.235-1.734.242-.797.687-1.367a3.1 3.1 0 0 1 1.063-.891q.624-.32 1.398-.32.757 0 1.32.257.57.25.985.735V118.8h1.445v12h-1.328l-.063-.891a2.76 2.76 0 0 1-1.007.782q-.587.265-1.368.265-.766 0-1.39-.328a3.2 3.2 0 0 1-1.055-.906 4.4 4.4 0 0 1-.68-1.359 5.8 5.8 0 0 1-.242-1.696zm1.446.164q0 .618.132 1.172.134.554.414.977.274.422.704.672.43.242 1.03.242.727 0 1.204-.328t.758-.883v-3.922a2.4 2.4 0 0 0-.758-.844q-.477-.336-1.188-.336-.61 0-1.046.25-.43.25-.704.672a3.1 3.1 0 0 0-.414.992q-.132.555-.132 1.172z"/><rect width="132" height="100" x="142" y=".8" fill="#000" rx="12"/><path fill="#6B6B6B" d="M188.719 129.308a5 5 0 0 1-.563.57 4.4 4.4 0 0 1-.617.438 4.3 4.3 0 0 1-1.18.484 5 5 0 0 1-1.328.156 4.1 4.1 0 0 1-1.297-.211 3.7 3.7 0 0 1-1.054-.578 4 4 0 0 1-.821-.851 5.2 5.2 0 0 1-.586-1.071 6 6 0 0 1-.367-1.195 7.5 7.5 0 0 1-.125-1.273v-1.321q.008-.633.11-1.258.11-.632.328-1.21.219-.579.547-1.071.327-.5.789-.867.453-.36 1.031-.57a3.8 3.8 0 0 1 1.297-.211q.797 0 1.469.25.671.242 1.171.695.5.46.805 1.109.305.642.375 1.438h-1.43a4 4 0 0 0-.265-.906 2.3 2.3 0 0 0-.469-.719 2.1 2.1 0 0 0-.703-.461 2.4 2.4 0 0 0-.945-.172q-.516 0-.914.18a2.2 2.2 0 0 0-.696.469 2.6 2.6 0 0 0-.492.695q-.195.39-.32.828a6 6 0 0 0-.18.891 7 7 0 0 0-.055.875v1.336q.008.43.071.89.07.453.211.891t.359.828.531.687a2.4 2.4 0 0 0 .711.477q.406.173.922.18.297.007.617-.024a3 3 0 0 0 .633-.125 2.7 2.7 0 0 0 .57-.25q.266-.164.446-.422l.015-2.554h-2.312v-1.219h3.687zm1.996-6.961h4.321v7.203h2.757v1.25h-7.078v-1.25h2.875v-5.945h-2.875zm2.688-2.219q0-.187.055-.351a.73.73 0 0 1 .445-.438q.164-.062.367-.062t.359.062q.157.056.258.156a.7.7 0 0 1 .188.274q.062.164.062.359 0 .352-.219.586-.218.234-.648.234-.437 0-.656-.234a.84.84 0 0 1-.211-.586m9.637.172v2.047h3.219v1.117h-3.219v4.594q0 .492.125.812t.344.508q.218.195.5.274.289.078.609.078.234 0 .485-.024a15 15 0 0 0 .929-.148l.344-.078.203 1.023q-.18.11-.437.195-.258.08-.563.133a6 6 0 0 1-.648.094 7 7 0 0 1-.672.031q-.563 0-1.055-.156a2.2 2.2 0 0 1-.844-.516 2.4 2.4 0 0 1-.57-.89q-.203-.555-.203-1.336v-4.594h-2.219v-1.117h2.219V120.3zm7.153 3.305q.171-.258.383-.469.21-.219.445-.383.375-.273.82-.414a3.5 3.5 0 0 1 2.164.047q.548.188.93.594.383.406.586 1.031.211.617.211 1.469v5.32h-1.445v-5.336q0-.5-.118-.875a1.65 1.65 0 0 0-.343-.633 1.5 1.5 0 0 0-.61-.406 2.2 2.2 0 0 0-.844-.133q-.39 0-.742.11-.351.11-.648.312a2.7 2.7 0 0 0-.789.82v6.141h-1.446v-12h1.446zm13.254 7.195-.086-1.164a3.05 3.05 0 0 1-1.054.977q-.633.343-1.461.343-.665 0-1.203-.203a2.34 2.34 0 0 1-.922-.648q-.383-.438-.594-1.11-.203-.679-.203-1.625v-5.023h1.445v5.039q0 .687.109 1.141.11.453.329.718.218.274.531.383.32.11.734.11.485 0 .867-.11a2.2 2.2 0 0 0 .664-.32q.235-.165.407-.391.178-.234.297-.508v-6.062h1.453v8.453zm10.723-4.133q0 .555-.086 1.071-.078.507-.234.953-.212.585-.555 1.054a3 3 0 0 1-.812.766q-.344.211-.758.328a3.2 3.2 0 0 1-.883.117q-.547 0-1-.133a2.8 2.8 0 0 1-.805-.382 3 3 0 0 1-.625-.602l-.07.961h-1.328v-12h1.445v4.453a2.7 2.7 0 0 1 .399-.406q.219-.188.469-.32.312-.165.687-.25.375-.087.813-.086.546 0 1.007.148t.836.414q.336.25.602.61.265.351.469.789.21.492.32 1.093.11.594.109 1.258zm-1.445-.164q0-.398-.055-.773a4 4 0 0 0-.148-.719 3.3 3.3 0 0 0-.367-.758 1.7 1.7 0 0 0-.555-.539 2 2 0 0 0-.508-.219 2.3 2.3 0 0 0-.625-.078 2.2 2.2 0 0 0-.687.102 1.9 1.9 0 0 0-.555.265q-.25.18-.445.422a2.6 2.6 0 0 0-.321.516v3.695q.14.281.328.524.196.234.446.414t.562.281q.313.094.688.094.359 0 .656-.086.297-.094.531-.266.313-.219.524-.555.21-.335.336-.75.101-.312.148-.671t.047-.735z"/></svg>
